public/icons/favicon.svg

<?xml version="1.0" encoding="UTF-8" standalone="no"?>
<!-- Created with Inkscape (http://www.inkscape.org/) -->
<svg xmlns:dc="http://purl.org/dc/elements/1.1/" xmlns:cc="http://creativecommons.org/ns#" xmlns:rdf="http://www.w3.org/1999/02/22-rdf-syntax-ns#" xmlns:svg="http://www.w3.org/2000/svg" xmlns="http://www.w3.org/2000/svg" xmlns:xlink="http://www.w3.org/1999/xlink" xmlns:sodipodi="http://sodipodi.sourceforge.net/DTD/sodipodi-0.dtd" xmlns:inkscape="http://www.inkscape.org/namespaces/inkscape" id="svg1247" sodipodi:version="0.32" inkscape:version="0.46" width="120.00000pt" height="120.00000pt" sodipodi:docbase="/var/www/html/svg_gallery/svg/happy" sodipodi:docname="whisky_glass.svg" inkscape:output_extension="org.inkscape.output.svg.inkscape">
  <metadata id="metadata30"/>
  <defs id="defs1249">
    <linearGradient inkscape:collect="always" id="linearGradient3184">
      <stop style="stop-color:#ffffff;stop-opacity:1;" offset="0" id="stop3186"/>
      <stop style="stop-color:#ffffff;stop-opacity:0;" offset="1" id="stop3188"/>
    </linearGradient>
    <inkscape:perspective sodipodi:type="inkscape:persp3d" inkscape:vp_x="0 : 75 : 1" inkscape:vp_y="0 : 1000 : 0" inkscape:vp_z="150 : 75 : 1" inkscape:persp3d-origin="75 : 50 : 1" id="perspective34"/>
    <linearGradient inkscape:collect="always" xlink:href="#linearGradient3184" id="linearGradient3192" x1="308.75" y1="111.5" x2="345.93832" y2="113.5" gradientUnits="userSpaceOnUse"/>
    <linearGradient inkscape:collect="always" xlink:href="#linearGradient3184" id="linearGradient3196" gradientUnits="userSpaceOnUse" x1="308.75" y1="111.5" x2="345.93832" y2="113.5" gradientTransform="matrix(-1,0,0,1,720.56334,1)"/>
  </defs>
  <sodipodi:namedview id="base" pagecolor="#ffffff" bordercolor="#666666" borderopacity="1.0" inkscape:pageopacity="0.0" inkscape:pageshadow="2" inkscape:zoom="2" inkscape:cx="-63.061019" inkscape:cy="56.111161" inkscape:window-width="1024" inkscape:window-height="694" inkscape:window-x="0" inkscape:window-y="34" showgrid="false" inkscape:current-layer="g849"/>
  <g id="g849" transform="translate(-300, -63.5)">
    <path style="fill:#ff6600;fill-opacity:0.5;fill-rule:evenodd;stroke:none;stroke-width:2.5;stroke-linejoin:round;stroke-dasharray:none" d="M 404.61574,106.60615 C 404.61574,109.54611 386.70111,112.31435 358.1007,112.31435 C 329.50028,112.31435 313.45529,109.7372 313.45529,106.79724 C 313.45529,103.85728 329.50028,101.66232 358.1007,101.66232 C 386.70111,101.66232 404.61574,103.66619 404.61574,106.60615 z" id="path1255" sodipodi:nodetypes="ccccc" inkscape:export-filename="C:\Documents and Settings\jan.helebrant\Plocha\EMRAS\Etiketa\clipart\path1252.png" inkscape:export-xdpi="363.34402" inkscape:export-ydpi="363.34402"/>
    <g id="g1269" transform="translate(120.438,-31.0625)" inkscape:export-filename="C:\Documents and Settings\jan.helebrant\Plocha\EMRAS\Etiketa\clipart\path1252.png" inkscape:export-xdpi="363.34402" inkscape:export-ydpi="363.34402">
      <path style="fill:#7573ae;fill-opacity:0.15;fill-rule:evenodd;stroke:#000000;stroke-width:1pt" d="M 249.64736,121.7591 L 271.5625,128.125 C 271.5625,128.125 272.8125,145.9375 270.9375,150 C 267.1875,150.9375 248.125,145.9375 248.125,142.8125 C 248.125,139.6875 245.27236,127.3841 249.64736,121.7591 z" id="path1259" sodipodi:nodetypes="ccccc" transform="matrix(0.640697,0.767794,-0.767794,0.640697,181.595,-146.438)"/>
      <path style="fill:#7573ae;fill-opacity:0.15;fill-rule:evenodd;stroke:#000000;stroke-width:1pt" d="M 271.5625,128.125 C 271.5625,128.125 272.8125,149.0625 271.25,150 C 269.6875,150.9375 286.875,146.5625 286.875,143.125 C 286.875,139.6875 286.25,125.9375 285.3125,124.0625 C 284.375,122.1875 271.5625,126.5625 271.5625,128.125 z" id="path1260" transform="matrix(0.640697,0.767794,-0.767794,0.640697,181.595,-146.438)"/>
      <path style="fill:#7573ae;fill-opacity:0.15;fill-rule:evenodd;stroke:#000000;stroke-width:1pt" d="M 250,121.875 C 251.5625,122.5 267.1875,126.25 271.25,128.125 C 272.1875,127.1875 279.43366,122.90295 284.43366,123.21545 C 286.62116,124.77795 272.1875,118.125 268.125,115.9375 C 265.3125,118.75 254.6875,117.5 250,121.875 z" id="path1261" sodipodi:nodetypes="ccccc" transform="matrix(0.640697,0.767794,-0.767794,0.640697,181.595,-146.438)"/>
    </g>
    <path style="fill:#7573ae;fill-opacity:0.14902003;fill-rule:evenodd;stroke:#000000;stroke-width:2.49999976;stroke-linejoin:round;stroke-dasharray:none" d="M 408.35807,166.64048 C 408.35807,170.52091 387.45376,175.43801 360.60758,175.43801 C 333.7614,175.43801 311.9732,168.75315 311.9732,164.87272 C 311.9732,160.99229 333.05429,161.37849 359.90047,161.37849 C 386.74665,161.37849 408.35807,162.76005 408.35807,166.64048 z" id="path1253" sodipodi:nodetypes="csssc" inkscape:export-filename="C:\Documents and Settings\jan.helebrant\Plocha\EMRAS\Etiketa\clipart\path1252.png" inkscape:export-xdpi="363.34402" inkscape:export-ydpi="363.34402"/>
    <path style="fill:#ff6600;fill-opacity:0.61989794;fill-rule:evenodd;stroke:none;stroke-width:2.5;stroke-linejoin:round;stroke-dasharray:none" d="M 315.45529,106.10165 L 312.87156,152.14763 C 319.08817,155.29839 335.53922,157.09814 359.79587,157.60033 C 375.96699,156.92041 396.3759,155.80041 407.68087,151.14763 C 408.83596,150.24107 404.74282,106.26737 404.74282,106.26737 C 400.70003,108.98704 384.23264,111.12326 357.08828,111.34989 C 330.76727,111.54099 315.45529,108.82132 315.45529,106.10165 z" id="path1257" sodipodi:nodetypes="ccccccc" inkscape:export-filename="C:\Documents and Settings\jan.helebrant\Plocha\EMRAS\Etiketa\clipart\path1252.png" inkscape:export-xdpi="363.34402" inkscape:export-ydpi="363.34402"/>
    <path id="path2411" d="M 406.53484,150.40825 C 406.53484,154.28868 385.64264,157.43801 359.90046,157.43801 C 334.15828,157.43801 313.26608,154.28868 313.26608,150.40825 C 313.26608,146.52782 334.15828,143.37849 359.90046,143.37849 C 385.64264,143.37849 406.53484,146.52782 406.53484,150.40825 z" style="fill:#7573ae;fill-opacity:0.14902003;fill-rule:evenodd;stroke:#000000;stroke-width:2.49999976;stroke-linejoin:round;stroke-dasharray:none" inkscape:export-filename="C:\Documents and Settings\jan.helebrant\Plocha\EMRAS\Etiketa\clipart\path1252.png" inkscape:export-xdpi="363.34402" inkscape:export-ydpi="363.34402"/>
    <path sodipodi:nodetypes="ccccccc" id="path2409" d="M 315.80139,78.90786 L 312.00391,166.24003 C 312.48114,168.90172 344.32037,175.72697 364.36338,175.06155 C 377.7254,174.06341 399.36084,173.72883 408.42791,167.74003 C 409.38234,166.40918 404.10437,79.43167 404.10437,79.43167 C 400.76388,83.42421 382.49755,86.56023 360.06845,86.89294 C 338.59377,86.89294 315.80139,82.9004 315.80139,78.90786 z" style="fill:#7573ae;fill-opacity:0.15;fill-rule:evenodd;stroke:#000000;stroke-width:2.5;stroke-linejoin:round;stroke-dasharray:none" inkscape:export-filename="C:\Documents and Settings\jan.helebrant\Plocha\EMRAS\Etiketa\clipart\path1252.png" inkscape:export-xdpi="363.34402" inkscape:export-ydpi="363.34402"/>
    <path style="fill:url(#linearGradient3192);fill-opacity:1;fill-rule:evenodd;stroke:none;stroke-width:1pt;stroke-linecap:butt;stroke-linejoin:miter;stroke-opacity:1" d="M 316.9375,78.71265 C 316.26219,86.91883 341.62577,89.13148 345.45617,87.78812 C 347.01867,87.47562 344.31821,168.48704 343.91883,171.0804 C 339.60215,171.19969 316.62994,167.2176 313.125,164.125 L 316.9375,78.71265 z" id="path1273" sodipodi:nodetypes="ccccc" inkscape:export-filename="C:\Documents and Settings\jan.helebrant\Plocha\EMRAS\Etiketa\clipart\path1252.png" inkscape:export-xdpi="363.34402" inkscape:export-ydpi="363.34402"/>
    <path sodipodi:nodetypes="ccccc" id="path3194" d="M 403.62584,79.71265 C 404.30115,87.91883 378.93757,90.13148 375.10717,88.78812 C 373.54467,88.47562 376.24513,169.48704 376.64451,172.0804 C 380.96119,172.19969 403.9334,168.2176 407.43834,165.125 L 403.62584,79.71265 z" style="fill:url(#linearGradient3196);fill-opacity:1;fill-rule:evenodd;stroke:none;stroke-width:1pt;stroke-linecap:butt;stroke-linejoin:miter;stroke-opacity:1" inkscape:export-filename="C:\Documents and Settings\jan.helebrant\Plocha\EMRAS\Etiketa\clipart\path1252.png" inkscape:export-xdpi="363.34402" inkscape:export-ydpi="363.34402"/>
    <path style="fill:#7573ae;fill-opacity:0.15;fill-rule:evenodd;stroke:#000000;stroke-width:2.5;stroke-linejoin:round;stroke-dasharray:none" d="M 403.67378,79.74151 C 403.67378,84.05745 384.02315,87.56023 359.81079,87.56023 C 335.59845,87.56023 315.94783,84.05745 315.94783,79.74151 C 315.94783,75.42557 335.59845,71.92278 359.81079,71.92278 C 384.02315,71.92278 403.67378,75.42557 403.67378,79.74151 z" id="path1252" inkscape:export-xdpi="363.34402" inkscape:export-ydpi="363.34402"/>
  </g>
  <metadata id="metadata32">
    <rdf:RDF>
      <cc:Work rdf:about="">
        <dc:title>whisky glass</dc:title>
        <dc:rights>
          <cc:Agent>
            <dc:title>Jan Helebrant</dc:title>
          </cc:Agent>
        </dc:rights>
        <dc:type rdf:resource="http://purl.org/dc/dcmitype/StillImage"/>
        <cc:license rdf:resource="http://creativecommons.org/licenses/publicdomain/"/>
        <dc:format>image/svg+xml</dc:format>
        <dc:contributor>
          <cc:Agent>
            <dc:title>Nicu Buculei</dc:title>
          </cc:Agent>
        </dc:contributor>
        <dc:creator>
          <cc:Agent>
            <dc:title>Jan Helebrant</dc:title>
          </cc:Agent>
        </dc:creator>
        <dc:publisher>
          <cc:Agent>
            <dc:title>Jan Helebrant</dc:title>
          </cc:Agent>
        </dc:publisher>
        <dc:subject>
          <rdf:Bag>
            <rdf:li>whisky</rdf:li>
            <rdf:li>glass</rdf:li>
            <rdf:li>ice cube</rdf:li>
            <rdf:li>alcohol</rdf:li>
            <rdf:li>drink</rdf:li>
          </rdf:Bag>
        </dc:subject>
      </cc:Work>
      <cc:License rdf:about="http://creativecommons.org/licenses/publicdomain/">
        <cc:permits rdf:resource="http://creativecommons.org/ns#Reproduction"/>
        <cc:permits rdf:resource="http://creativecommons.org/ns#Distribution"/>
        <cc:permits rdf:resource="http://creativecommons.org/ns#DerivativeWorks"/>
      </cc:License>
    </rdf:RDF>
  </metadata>
</svg>

<svg xmlns="http://www.w3.org/2000/svg" xmlns:xlink="http://www.w3.org/1999/xlink" id="svg1247" width="160" height="160"><defs id="defs1249"><linearGradient id="linearGradient3184"><stop id="stop3186" offset="0" style="stop-color:#fff;stop-opacity:1"/><stop id="stop3188" offset="1" style="stop-color:#fff;stop-opacity:0"/></linearGradient><linearGradient xlink:href="#linearGradient3184" id="linearGradient3192" x1="308.75" x2="345.938" y1="111.5" y2="113.5" gradientUnits="userSpaceOnUse"/><linearGradient xlink:href="#linearGradient3184" id="linearGradient3196" x1="308.75" x2="345.938" y1="111.5" y2="113.5" gradientTransform="matrix(-1 0 0 1 720.563 1)" gradientUnits="userSpaceOnUse"/></defs><g id="g849" transform="translate(-280.5 -43.5)"><path id="path1255" d="M404.616 106.606c0 2.94-17.915 5.708-46.515 5.708s-44.646-2.577-44.646-5.517 16.045-5.135 44.646-5.135 46.515 2.004 46.515 4.944" style="fill:#f60;fill-opacity:.5;fill-rule:evenodd;stroke:none;stroke-width:2.5;stroke-linejoin:round;stroke-dasharray:none"/><g id="g1269" transform="translate(120.438 -31.063)"><path id="path1259" d="m249.647 121.76 21.916 6.365s1.25 17.813-.625 21.875c-3.75.938-22.813-4.062-22.813-7.187s-2.853-15.429 1.522-21.054z" style="fill:#7573ae;fill-opacity:.15;fill-rule:evenodd;stroke:#000;stroke-width:1pt" transform="rotate(50.156 247.259 120.806)"/><path id="path1260" d="M271.563 128.125s1.25 20.938-.313 21.875 15.625-3.437 15.625-6.875c0-3.437-.625-17.187-1.562-19.062s-13.75 2.5-13.75 4.062z" style="fill:#7573ae;fill-opacity:.15;fill-rule:evenodd;stroke:#000;stroke-width:1pt" transform="rotate(50.156 247.259 120.806)"/><path id="path1261" d="M250 121.875c1.563.625 17.188 4.375 21.25 6.25.938-.937 8.184-5.222 13.184-4.91 2.187 1.563-12.247-5.09-16.309-7.278-2.812 2.813-13.437 1.563-18.125 5.938z" style="fill:#7573ae;fill-opacity:.15;fill-rule:evenodd;stroke:#000;stroke-width:1pt" transform="rotate(50.156 247.259 120.806)"/></g><path id="path1253" d="M408.358 166.64c0 3.88-20.904 8.798-47.75 8.798-26.847 0-48.635-6.685-48.635-10.565s21.081-3.495 47.927-3.495c26.847 0 48.458 1.382 48.458 5.262z" style="fill:#7573ae;fill-opacity:.14902003;fill-rule:evenodd;stroke:#000;stroke-width:2.49999976;stroke-linejoin:round;stroke-dasharray:none"/><path id="path1257" d="m315.455 106.102-2.583 46.046c6.216 3.15 22.667 4.95 46.924 5.452 16.171-.68 36.58-1.8 47.885-6.452 1.155-.907-2.938-44.88-2.938-44.88-4.043 2.719-20.51 4.855-47.655 5.082-26.32.191-41.633-2.529-41.633-5.248" style="fill:#f60;fill-opacity:.61989794;fill-rule:evenodd;stroke:none;stroke-width:2.5;stroke-linejoin:round;stroke-dasharray:none"/><path id="path2411" d="M406.535 150.408c0 3.88-20.892 7.03-46.635 7.03s-46.634-3.15-46.634-7.03 20.892-7.03 46.634-7.03 46.635 3.15 46.635 7.03z" style="fill:#7573ae;fill-opacity:.14902003;fill-rule:evenodd;stroke:#000;stroke-width:2.49999976;stroke-linejoin:round;stroke-dasharray:none"/><path id="path2409" d="m315.801 78.908-3.797 87.332c.477 2.662 32.316 9.487 52.36 8.822 13.361-.999 34.997-1.333 44.064-7.322.954-1.33-4.324-88.308-4.324-88.308-3.34 3.992-21.606 7.128-44.036 7.46-21.474 0-44.267-3.992-44.267-7.984z" style="fill:#7573ae;fill-opacity:.15;fill-rule:evenodd;stroke:#000;stroke-width:2.5;stroke-linejoin:round;stroke-dasharray:none"/><path id="path1273" d="M316.938 78.713c-.676 8.206 24.688 10.418 28.518 9.075 1.563-.312-1.138 80.699-1.537 83.292-4.317.12-27.29-3.862-30.794-6.955z" style="fill:url(#linearGradient3192);fill-opacity:1;fill-rule:evenodd;stroke:none;stroke-width:1pt;stroke-linecap:butt;stroke-linejoin:miter;stroke-opacity:1"/><path id="path3194" d="M403.626 79.713c.675 8.206-24.688 10.418-28.519 9.075-1.562-.312 1.138 80.699 1.538 83.292 4.316.12 27.288-3.862 30.793-6.955z" style="fill:url(#linearGradient3196);fill-opacity:1;fill-rule:evenodd;stroke:none;stroke-width:1pt;stroke-linecap:butt;stroke-linejoin:miter;stroke-opacity:1"/><path id="path1252" d="M403.674 79.742c0 4.315-19.65 7.818-43.863 7.818s-43.863-3.503-43.863-7.818c0-4.316 19.65-7.82 43.863-7.82 24.212 0 43.863 3.504 43.863 7.82z" style="fill:#7573ae;fill-opacity:.15;fill-rule:evenodd;stroke:#000;stroke-width:2.5;stroke-linejoin:round;stroke-dasharray:none"/></g></svg>
